src/assets/images/bene8.svg

<svg width="40" height="40" viewBox="0 0 40 40" fill="none" xmlns="http://www.w3.org/2000/svg">
<circle cx="19.9615" cy="20.2144" r="19.563" fill="url(#paint0_linear_673_7)"/>
<path d="M24.577 23.5375C24.4624 23.4218 24.3982 23.2655 24.3982 23.1027C24.3982 22.9398 24.4624 22.7835 24.577 22.6678L18.2309 16.3184L17.25 17.2992L19.1202 18.7803L24.3089 24.3614C24.3946 24.4476 24.4965 24.5161 24.6087 24.5627C24.721 24.6094 24.8413 24.6334 24.9629 24.6334C25.0844 24.6334 25.2047 24.6094 25.317 24.5627C25.4292 24.5161 25.5311 24.4476 25.6168 24.3614L25.9437 24.0345L25.4467 23.5375C25.331 23.6521 25.1748 23.7164 25.0119 23.7164C24.849 23.7164 24.6928 23.6521 24.577 23.5375Z" fill="white"/>
<path d="M19.2211 15.335L18.2402 16.3158L24.5864 22.6686C24.7018 22.5532 24.8582 22.4884 25.0213 22.4884C25.1844 22.4884 25.3408 22.5532 25.4561 22.6686C25.5714 22.7839 25.6362 22.9403 25.6362 23.1034C25.6362 23.2665 25.5714 23.4229 25.4561 23.5382L25.9531 24.0352L26.28 23.7083C26.3662 23.6226 26.4347 23.5207 26.4813 23.4085C26.528 23.2962 26.5521 23.1759 26.5521 23.0544C26.5521 22.9328 26.528 22.8125 26.4813 22.7002C26.4347 22.588 26.3662 22.4861 26.28 22.4004L20.6662 17.1692L19.2211 15.335Z" fill="#EDECEA"/>
<path d="M24.5818 23.5353C24.4672 23.4196 24.4029 23.2633 24.4029 23.1004C24.4029 22.9376 24.4672 22.7813 24.5818 22.6656L24.4478 22.5381C24.3739 22.6119 24.3154 22.6996 24.2754 22.7961C24.2354 22.8926 24.2148 22.996 24.2148 23.1004C24.2148 23.2049 24.2354 23.3083 24.2754 23.4048C24.3154 23.5013 24.3739 23.589 24.4478 23.6628C24.5969 23.812 24.7992 23.8957 25.0101 23.8957C25.1146 23.8957 25.218 23.8752 25.3145 23.8352C25.411 23.7952 25.4987 23.7367 25.5725 23.6628L25.445 23.5353C25.3296 23.6479 25.1747 23.711 25.0134 23.711C24.8521 23.711 24.6973 23.6479 24.5818 23.5353Z" fill="#C4C1BA"/>
<path d="M25.453 22.6694C25.5676 22.7851 25.6319 22.9414 25.6319 23.1043C25.6319 23.2671 25.5676 23.4234 25.453 23.5391L25.5805 23.6666C25.7296 23.5166 25.8131 23.3135 25.8125 23.1019C25.8118 22.8904 25.7272 22.6878 25.5772 22.5386C25.4272 22.3895 25.2241 22.306 25.0125 22.3066C24.801 22.3073 24.5984 22.3919 24.4492 22.5419L24.5767 22.6694C24.6342 22.6117 24.7024 22.5659 24.7776 22.5346C24.8528 22.5033 24.9334 22.4872 25.0148 22.4872C25.0963 22.4872 25.1769 22.5033 25.2521 22.5346C25.3273 22.5659 25.3955 22.6117 25.453 22.6694Z" fill="#908F8B"/>
<path d="M20.3896 17.4257L19.1831 15.8955L17.8066 17.2687L19.3728 18.5079L24.1234 23.628C24.2804 23.6249 24.4359 23.5973 24.5844 23.5462C24.5273 23.4891 24.482 23.4213 24.4511 23.3467C24.4202 23.2721 24.4043 23.1922 24.4043 23.1114C24.4043 23.0306 24.4202 22.9507 24.4511 22.8761C24.482 22.8014 24.5273 22.7336 24.5844 22.6765C24.6415 22.6194 24.7093 22.5741 24.7839 22.5432C24.8585 22.5123 24.9385 22.4964 25.0193 22.4964C25.1 22.4964 25.18 22.5123 25.2546 22.5432C25.3292 22.5741 25.397 22.6194 25.4541 22.6765L25.513 22.7517C25.6209 22.621 25.5489 22.258 25.5653 22.2515L20.3896 17.4257Z" fill="white"/>
<path d="M25.5704 22.5371C25.4286 22.3824 25.2311 22.2902 25.0214 22.281C24.8117 22.2718 24.607 22.3463 24.4522 22.4881C24.2974 22.6299 24.2053 22.8273 24.1961 23.037C24.1869 23.2467 24.2614 23.4515 24.4031 23.6063C24.4708 23.6001 24.5365 23.5801 24.596 23.5474C24.5389 23.4903 24.4936 23.4225 24.4627 23.3479C24.4318 23.2733 24.4159 23.1933 24.4159 23.1126C24.4159 23.0318 24.4318 22.9519 24.4627 22.8772C24.4936 22.8026 24.5389 22.7348 24.596 22.6777C24.6531 22.6206 24.7209 22.5753 24.7955 22.5444C24.8702 22.5135 24.9501 22.4976 25.0309 22.4976C25.1116 22.4976 25.1916 22.5135 25.2662 22.5444C25.3408 22.5753 25.4086 22.6206 25.4657 22.6777L25.5246 22.7529C25.5615 22.6873 25.5774 22.6121 25.5704 22.5371Z" fill="#6E6D6A"/>
<path d="M17.8066 17.266L18.6142 17.9199C19.1224 17.6443 19.5444 17.2336 19.8338 16.7331L19.1798 15.9092L17.8066 17.266Z" fill="white"/>
<path d="M16.0439 11.0721L18.4699 14.0702L17.7441 15.7802L16.0308 16.5061L13.0359 14.0801C12.9207 14.8294 13.0452 15.596 13.3916 16.2703C13.7381 16.9446 14.2888 17.4923 14.965 17.8349C15.6413 18.1776 16.4086 18.2978 17.1572 18.1784C17.9059 18.0589 18.5977 17.706 19.1338 17.1699C19.6698 16.6338 20.0228 15.942 20.1422 15.1934C20.2617 14.4447 20.1415 13.6774 19.7988 13.0012C19.4561 12.3249 18.9085 11.7742 18.2342 11.4278C17.5598 11.0813 16.7932 10.9568 16.0439 11.0721Z" fill="white"/>
<path d="M18.766 16.7608H18.7496L18.5534 16.8262C18.5243 16.8332 18.4949 16.8387 18.4652 16.8425C18.3206 16.9187 18.1682 16.979 18.0107 17.0224L17.9224 17.042C17.7105 17.2155 17.4658 17.3447 17.2029 17.4216C16.94 17.4986 16.6643 17.5218 16.3923 17.4899L16.4805 17.4147C16.96 17.0039 17.4633 16.6218 17.9878 16.2704C18.0448 16.2315 18.1049 16.1976 18.1676 16.169L17.7589 15.7701L16.049 16.4992L13.0508 14.0732C13.0508 14.0929 13.0508 14.1125 13.0508 14.1321L13.0083 14.1092C12.8848 14.863 13.0044 15.6364 13.3499 16.3176C13.6954 16.9988 14.2487 17.5524 14.9299 17.898C15.611 18.2437 16.3844 18.3635 17.1382 18.2402C17.892 18.1168 18.5869 17.7567 19.1223 17.212L19.1518 17.1793C19.0077 17.0549 18.8782 16.9145 18.766 16.7608Z" fill="white"/>
<path d="M19.0171 17.0533C18.3676 17.6805 17.4957 18.0244 16.5929 18.0097C15.6901 17.995 14.8299 17.6228 14.2011 16.9748C13.6004 16.3832 13.2365 15.5926 13.1777 14.7515L15.9438 17.014L18.0886 16.1313L18.9714 13.9864L16.6467 11.2891C17.4965 11.3274 18.3061 11.6616 18.9354 12.234C19.5833 12.8633 19.9556 13.7236 19.9709 14.6267C19.9862 15.5299 19.6433 16.4023 19.0171 17.0533Z" fill="#EDECEA"/>
<path d="M21.0859 20.9011L23.4629 23.1277L24.944 24.9946L25.9249 24.0138L22.191 20.2832C21.8722 20.5675 21.495 20.7784 21.0859 20.9011Z" fill="white"/>
<path d="M22.9368 19.2803C22.7908 19.6156 22.5847 19.9215 22.3287 20.1827C22.2894 20.2219 22.2437 20.2611 22.2012 20.2971L25.9383 24.0178L26.9191 23.037L25.0816 21.5886L24.0092 20.4344L22.9368 19.2803Z" fill="#EDECEA"/>
<path d="M22.7543 19.6309C22.6077 19.8046 22.4421 19.9614 22.2606 20.0984C22.0382 20.3607 21.7715 20.5821 21.4727 20.7523L23.7613 22.8742L24.9907 24.4371L26.3639 23.0639L24.8305 21.8541L22.7543 19.6309Z" fill="white"/>
<path d="M24.9781 24.435L24.3242 23.6307C24.4698 23.3661 24.6514 23.1229 24.8637 22.9081C25.0594 22.715 25.2792 22.548 25.5176 22.4111L26.3448 23.065L24.9781 24.435Z" fill="white"/>
<path d="M31.181 26.2043L28.1828 23.7816L26.4729 24.5074L25.7568 26.2174L28.1828 29.2123C27.4335 29.3268 26.6672 29.2016 25.9933 28.8547C25.3193 28.5077 24.7722 27.9567 24.4301 27.2803C24.088 26.6039 23.9684 25.8366 24.0882 25.0882C24.2081 24.3397 24.5615 23.6483 25.0977 23.1126C25.634 22.5769 26.3259 22.2243 27.0745 22.1052C27.8231 21.9861 28.5901 22.1066 29.2662 22.4495C29.9422 22.7923 30.4927 23.34 30.8389 24.0143C31.1851 24.6886 31.3094 25.4551 31.1941 26.2043H31.181Z" fill="white"/>
<path d="M25.0748 23.0967L25.0421 23.1261C24.4988 23.6618 24.1399 24.3564 24.0174 25.1095C23.8949 25.8625 24.015 26.6351 24.3604 27.3154C24.7058 27.9957 25.2587 28.5485 25.939 28.8939C26.6193 29.2393 27.3918 29.3594 28.1449 29.2369L28.122 29.2075H28.1809L25.7581 26.206L26.484 24.496L26.0851 24.0874C26.0524 24.1495 26.0197 24.2083 25.9837 24.2672C25.6304 24.7912 25.2472 25.2944 24.8361 25.7744L24.7642 25.8627C24.7322 25.5909 24.7551 25.3154 24.8315 25.0526C24.9079 24.7898 25.0362 24.5449 25.2088 24.3326L25.2285 24.2443C25.2714 24.0844 25.3294 23.9289 25.4017 23.78C25.4017 23.7506 25.4017 23.7212 25.4214 23.6885C25.441 23.6558 25.4639 23.5577 25.4835 23.4923C25.3348 23.3739 25.1979 23.2414 25.0748 23.0967Z" fill="white"/>
<path d="M25.1978 23.2301C24.5738 23.8787 24.2318 24.7479 24.2465 25.6478C24.2613 26.5477 24.6315 27.4052 25.2763 28.0331C25.8673 28.6332 26.6563 28.9981 27.4963 29.0597L25.2338 26.2969L26.1166 24.1521L28.2647 23.2693L30.962 25.6038C30.9231 24.7536 30.5876 23.9438 30.0139 23.3151C29.3859 22.6662 28.5263 22.2928 27.6234 22.2769C26.7206 22.261 25.8483 22.6038 25.1978 23.2301Z" fill="#C4C1BA" fill-opacity="0.31"/>
<path d="M20.2762 25.5737L20.3057 23.187L19.1123 23.0627C19.0514 22.8771 18.9783 22.6958 18.8932 22.52L19.6714 21.6078L18.0039 19.8978L17.0721 20.6531C16.899 20.5642 16.7198 20.4878 16.5359 20.4242L16.4411 19.2275H15.1855V21.9445H15.215C15.848 21.9484 16.4535 22.2036 16.8984 22.654C17.3432 23.1044 17.5909 23.713 17.587 24.346C17.5831 24.979 17.3279 25.5846 16.8776 26.0294C16.4272 26.4742 15.8186 26.722 15.1855 26.7181V29.4383H16.3168L16.4411 28.2449C16.627 28.1877 16.8084 28.1166 16.9838 28.0324L17.9123 28.8073L19.6223 27.1366L18.8671 26.208C18.9553 26.0335 19.0318 25.8533 19.0959 25.6685L20.2762 25.5737Z" fill="white"/>
<path d="M15.1532 26.7211C14.535 26.6948 13.9511 26.4296 13.5243 25.9815C13.0976 25.5335 12.8612 24.9373 12.8651 24.3185C12.8689 23.6998 13.1125 23.1066 13.5447 22.6638C13.977 22.221 14.5641 21.9631 15.1826 21.9443V19.2012H14.0481L13.9238 20.3946C13.7388 20.454 13.5584 20.5272 13.3844 20.6136L12.4689 19.8355L10.7622 21.4899L11.5174 22.4217C11.4273 22.5942 11.3507 22.7734 11.2886 22.9579L10.0919 23.0592L10.0625 25.4493L11.2559 25.5735C11.3142 25.7585 11.3863 25.9388 11.4717 26.113L10.6935 27.0285L12.3512 28.7352L13.283 27.9799C13.4561 28.0698 13.6352 28.1474 13.8192 28.212L13.914 29.4054H15.1695V26.7015L15.1532 26.7211Z" fill="white"/>
<path d="M15.215 21.9317C15.5284 21.9336 15.8384 21.9973 16.1272 22.119C16.4161 22.2408 16.6781 22.4182 16.8984 22.6412C17.1186 22.8642 17.2928 23.1284 17.411 23.4187C17.5291 23.709 17.589 24.0198 17.587 24.3332C17.5851 24.6466 17.5214 24.9566 17.3997 25.2454C17.278 25.5343 17.1006 25.7963 16.8776 26.0166C16.6546 26.2368 16.3904 26.411 16.1 26.5292C15.8097 26.6474 15.499 26.7072 15.1855 26.7052V27.1532C15.9391 27.1532 16.6618 26.8538 17.1946 26.321C17.7274 25.7882 18.0268 25.0655 18.0268 24.3119C18.0268 23.5584 17.7274 22.8357 17.1946 22.3029C16.6618 21.77 15.9391 21.4707 15.1855 21.4707V21.9317H15.215Z" fill="white"/>
<path d="M15.1556 26.7249C14.5373 26.6985 13.9534 26.4334 13.5267 25.9853C13.0999 25.5372 12.8636 24.941 12.8674 24.3223C12.8712 23.7035 13.1149 23.1103 13.5471 22.6675C13.9794 22.2247 14.5665 21.9668 15.185 21.9481V21.4707C14.4314 21.4707 13.7088 21.77 13.1759 22.3029C12.6431 22.8357 12.3438 23.5584 12.3438 24.3119C12.3438 25.0655 12.6431 25.7882 13.1759 26.321C13.7088 26.8538 14.4314 27.1532 15.185 27.1532V26.7052L15.1556 26.7249Z" fill="white"/>
<defs>
<linearGradient id="paint0_linear_673_7" x1="19.9615" y1="0.651367" x2="19.9615" y2="39.7774" gradientUnits="userSpaceOnUse">
<stop stop-color="#F4815A"/>
<stop offset="1" stop-color="#F25E53"/>
</linearGradient>
</defs>
</svg>

<svg xmlns="http://www.w3.org/2000/svg" width="40" height="40" fill="none"><circle cx="19.962" cy="20.214" r="19.563" fill="url(#a)"/><path fill="#fff" d="M24.577 23.538a.62.62 0 0 1 0-.87l-6.346-6.35-.981.981 1.87 1.481 5.189 5.581a.92.92 0 0 0 1.308 0l.327-.326-.497-.497a.62.62 0 0 1-.87 0"/><path fill="#EDECEA" d="m19.221 15.335-.98.98 6.345 6.354a.615.615 0 1 1 .87.87l.497.496.327-.327a.92.92 0 0 0 0-1.308l-5.614-5.23z"/><path fill="#C4C1BA" d="M24.582 23.535a.62.62 0 0 1 0-.87l-.134-.127a.794.794 0 1 0 1.125 1.125l-.128-.128a.62.62 0 0 1-.863 0"/><path fill="#908F8B" d="M25.453 22.67a.62.62 0 0 1 0 .87l.128.127a.798.798 0 0 0-1.132-1.125l.128.127a.62.62 0 0 1 .876 0"/><path fill="#fff" d="m20.39 17.426-1.207-1.53-1.376 1.373 1.566 1.239 4.75 5.12q.237-.004.461-.082a.615.615 0 0 1 .87-.87l.059.076c.108-.131.036-.494.052-.5z"/><path fill="#6E6D6A" d="M25.57 22.537a.792.792 0 0 0-1.167 1.07.5.5 0 0 0 .193-.06.615.615 0 0 1 .87-.87l.059.076a.37.37 0 0 0 .045-.216"/><path fill="#fff" d="m17.807 17.266.807.654c.508-.276.93-.686 1.22-1.187l-.654-.824z"/><path fill="#fff" d="m16.044 11.072 2.426 2.998-.726 1.71-1.713.726-2.995-2.426a3.597 3.597 0 1 0 3.008-3.008"/><path fill="#fff" d="M18.766 16.76h-.016l-.197.066a1 1 0 0 1-.088.017 2.3 2.3 0 0 1-.454.18l-.089.019a2.04 2.04 0 0 1-1.53.448l.088-.075q.72-.617 1.508-1.145.086-.057.18-.101l-.41-.399-1.709.73-2.998-2.427v.06l-.043-.024a3.596 3.596 0 0 0 6.114 3.103l.03-.033a2.5 2.5 0 0 1-.386-.418"/><path fill="#EDECEA" d="M19.017 17.053a3.41 3.41 0 0 1-4.816-.078 3.46 3.46 0 0 1-1.023-2.224l2.766 2.263 2.145-.883.882-2.145-2.324-2.697a3.64 3.64 0 0 1 2.288.945 3.416 3.416 0 0 1 .082 4.82"/><path fill="#fff" d="m21.086 20.901 2.377 2.227 1.481 1.867.98-.981-3.733-3.73a2.9 2.9 0 0 1-1.105.617"/><path fill="#EDECEA" d="M22.937 19.28a3 3 0 0 1-.608.903q-.062.06-.128.114l3.737 3.72.981-.98-1.837-1.448-1.073-1.155z"/><path fill="#fff" d="M22.754 19.63q-.22.262-.493.468c-.223.263-.49.484-.788.654l2.288 2.122 1.23 1.563 1.373-1.373-1.533-1.21z"/><path fill="#fff" d="m24.978 24.435-.654-.804q.22-.399.54-.723a3.2 3.2 0 0 1 .654-.497l.827.654z"/><path fill="#fff" d="m31.181 26.204-2.998-2.422-1.71.725-.716 1.71 2.426 2.995a3.597 3.597 0 1 1 3.011-3.008z"/><path fill="#fff" d="m25.075 23.097-.033.03a3.596 3.596 0 0 0 3.103 6.11l-.023-.03h.059l-2.423-3.001.726-1.71-.399-.409q-.048.093-.101.18a17 17 0 0 1-1.148 1.507l-.072.089a2.05 2.05 0 0 1 .445-1.53l.02-.089q.063-.24.173-.464c0-.03 0-.059.02-.091.019-.033.042-.131.061-.197a3 3 0 0 1-.408-.395"/><path fill="#C4C1BA" fill-opacity=".31" d="M25.198 23.23a3.407 3.407 0 0 0 .078 4.803c.591.6 1.38.965 2.22 1.027l-2.262-2.763.883-2.145 2.148-.883 2.697 2.335a3.64 3.64 0 0 0-.948-2.289 3.41 3.41 0 0 0-4.816-.085"/><path fill="#fff" d="m20.276 25.574.03-2.387-1.194-.124a4 4 0 0 0-.219-.543l.778-.912-1.667-1.71-.932.755a4 4 0 0 0-.536-.229l-.095-1.197h-1.255v2.718h.029a2.387 2.387 0 1 1-.03 4.773v2.72h1.132l.124-1.193q.279-.085.543-.213l.928.775 1.71-1.67-.755-.929q.133-.262.229-.54zm-5.123 1.147a2.39 2.39 0 0 1 .03-4.777v-2.743h-1.135l-.124 1.194a4 4 0 0 0-.54.219l-.915-.779-1.707 1.655.755.932q-.135.258-.228.536l-1.197.101-.03 2.39 1.194.124q.087.279.216.54l-.778.916 1.657 1.706.932-.755q.26.135.536.232l.095 1.193h1.255v-2.704z"/><path fill="#fff" d="M15.215 21.932a2.386 2.386 0 1 1-.03 4.773v.448a2.841 2.841 0 0 0 0-5.682v.46zm-.059 4.793a2.39 2.39 0 0 1 .029-4.777v-.477a2.841 2.841 0 1 0 0 5.682v-.448z"/><defs><linearGradient id="a" x1="19.962" x2="19.962" y1=".651" y2="39.777" gradientUnits="userSpaceOnUse"><stop stop-color="#F4815A"/><stop offset="1" stop-color="#F25E53"/></linearGradient></defs></svg>
